X:72
T:Week 7 Homework
T:Part 1: Writing Sequences
T:Anna Bon, Flute Sonata, op. 1 no. 2, mvt. III, mm. 87-93
L:1/8
M:3.8
Q:50
K:Dm
V:1
b/d'/g/b/f/b/|e/b/d/b/c/g/|"sequence down by step 2 times"a/c'/f/a/e/a/|d/a/c/a/B/f/|f/b/e/f/d/g/|^c/g/=B/g/A/e/|[Adf]3||
V:2
G,G,G,|C,C,C,|F,F,F,|B,,B,,B,,|E,E,E,|A,,A,,A,,|D,3||
w:Dm:~iv7|VII7|III7|VI7|iio7|V7|i||
w:chord~root:~G|C|F|Bb|E|A|D
%
W:2. Complete the sequence by transposing the bracketed segment down by step three times.
W:Use diatonic notes in the first copy and la and ti in the second copy, and end on a tonic chord.
W:Identify each chord both by roman numeral and by chord root.
W:Check your work by listening to the recording of the original (on Canvas).


